www/assets/icons/format_italic.svg

<svg xmlns="http://www.w3.org/2000/svg" width="24" height="24" viewBox="0 0 24 24" fill='currentColor'><path d="M10 5v3h2.21l-3.42 8H6v3h8v-3h-2.21l3.42-8H18V5z"/></svg>

<svg width="24" height="24" viewBox="0 0 24 24" xmlns="http://www.w3.org/2000/svg" fill='currentColor'><path d="M10 5V8H12.21L8.79 16H6V19H14V16H11.79L15.21 8H18V5H10Z"/></svg>
